X: 827
T: Alastair Of The Den
R: polka
M: 2/4
K: Bminor
|:d|"Bm"BB d2|"A"dc/B/ c2|"C#m"e/e/e/e/ "F#m"AA|"C#m"e/e/e/e/ "F#m"AA|
"Bm"BB d2|"A"dc/B/ cd/e/|"Bm"fd "A"ec|1 "Bm"B2 B:|2 "Bm"B2 B/c/||
|:d/e/|"Bm"f>e Bd/e/|fe B2|"A"e>c Ac/d/|ec A2|
"Bm"f>e Bd/e/|fe Bd/e/|fd "A"ec|1 "Bm"B2 B/c/:|2 "Bm"B2 Bd||
"Bm"BB d2|"A"dc/B/ c2|"C#m"e/e/e/e/ "F#m"AA|"C#m"e/e/e/e/ "F#m"AA|
"Bm"BB d2|"A"dc/B/ cd/e/|"Bm"fd "A"ec|"Bm"B2 B||

